Papirus/22x22/apps/multimedia-audio-player.svg

<svg xmlns="http://www.w3.org/2000/svg" width="22" height="22" version="1">
 <circle fill="#ff5722" cx="11" cy="11" r="10"/>
 <rect fill="#fe9700" width="16" height="16" x="-19" y="-19" rx="8" ry="8" transform="matrix(0,-1,-1,0,0,0)"/>
 <g opacity=".2" style="enable-background:new" transform="matrix(.5 0 0 .5 -235.5 -83)">
  <path d="m489 183v8.1875c-0.32-0.12-0.64-0.19-1-0.19-1.6568 0-3 1.3432-3 3s1.3432 3 3 3 3-1.3432 3-3v-7h6v4.1875c-0.32-0.12-0.64-0.19-1-0.19-1.6568 0-3 1.3432-3 3s1.3432 3 3 3 3-1.3432 3-3v-11h-1z"/>
 </g>
 <g fill="#fff" style="enable-background:new" transform="matrix(.5 0 0 .5 -235.5 -83.5)">
  <path d="m489 183v8.1875c-0.32-0.12-0.64-0.19-1-0.19-1.6568 0-3 1.3432-3 3s1.3432 3 3 3 3-1.3432 3-3v-7h6v4.1875c-0.32-0.12-0.64-0.19-1-0.19-1.6568 0-3 1.3432-3 3s1.3432 3 3 3 3-1.3432 3-3v-11h-1z"/>
 </g>
 <path fill="#fff" opacity=".2" d="m11 1a10 10 0 0 0 -10 10 10 10 0 0 0 0.0107 0.291 10 10 0 0 1 9.9893 -9.791 10 10 0 0 1 9.989 9.709 10 10 0 0 0 0.011 -0.209 10 10 0 0 0 -10 -10z"/>
 <path opacity=".2" d="m20.989 11.209a10 10 0 0 1 -9.989 9.791 10 10 0 0 1 -9.9893 -9.709 10 10 0 0 0 -0.0107 0.209 10 10 0 0 0 10 10 10 10 0 0 0 10 -10 10 10 0 0 0 -0.01074 -0.29102z"/>
</svg>

<svg xmlns="http://www.w3.org/2000/svg" width="22" height="22" version="1">
 <circle style="fill:#e65a2f" cx="11" cy="11" r="10"/>
 <rect style="opacity:0.2" width="14" height="14" x="-18.5" y="-18" rx="7" ry="7" transform="matrix(0,-1,-1,0,0,0)"/>
 <rect style="fill:#ff9907" width="14" height="14" x="-18" y="-18" rx="7" ry="7" transform="matrix(0,-1,-1,0,0,0)"/>
 <g style="opacity:0.2;enable-background:new" transform="matrix(0.5,0,0,0.5,-235.5,-83.99975)">
  <path d="m 489,183 0,8.1875 c -0.32,-0.12 -0.64,-0.19 -1,-0.19 -1.6568,0 -3,1.3432 -3,3 0,1.6568 1.3432,3 3,3 1.6568,0 3,-1.3432 3,-3 l 0,-7 6,0 0,4.1875 c -0.32,-0.12 -0.64,-0.19 -1,-0.19 -1.6568,0 -3,1.3432 -3,3 0,1.6568 1.3432,3 3,3 1.6568,0 3,-1.3432 3,-3 l 0,-11 -1,0 z"/>
 </g>
 <g style="fill:#ffffff;enable-background:new" transform="matrix(0.5,0,0,0.5,-235.5,-84.49975)">
  <path style="fill:#ffffff" d="m 489,183 0,8.1875 c -0.32,-0.12 -0.64,-0.19 -1,-0.19 -1.6568,0 -3,1.3432 -3,3 0,1.6568 1.3432,3 3,3 1.6568,0 3,-1.3432 3,-3 l 0,-7 6,0 0,4.1875 c -0.32,-0.12 -0.64,-0.19 -1,-0.19 -1.6568,0 -3,1.3432 -3,3 0,1.6568 1.3432,3 3,3 1.6568,0 3,-1.3432 3,-3 l 0,-11 -1,0 z"/>
 </g>
 <path style="opacity:0.2;fill:#ffffff" d="M 11,1 A 10,10 0 0 0 1,11 10,10 0 0 0 1.0107,11.291 10,10 0 0 1 11,1.5 10,10 0 0 1 20.989,11.209 10,10 0 0 0 21,11 10,10 0 0 0 11,1 Z"/>
 <path style="opacity:0.2" d="M 20.989,11.209 A 10,10 0 0 1 11,21 10,10 0 0 1 1.0107,11.291 10,10 0 0 0 1,11.5 a 10,10 0 0 0 10,10 10,10 0 0 0 10,-10 10,10 0 0 0 -0.01074,-0.29102 z"/>
 <path style="opacity:0.2;fill:#ffffff" d="M 11,4 C 7.122,4 4,7.122 4,11 4,11.08452 4.00878,11.166218 4.011719,11.25 4.1437474,7.4898619 7.2065251,4.5 11,4.5 c 3.793475,0 6.856253,2.9898619 6.988281,6.75 C 17.991223,11.166218 18,11.084525 18,11 18,7.122 14.878,4 11,4 Z"/>
</svg>
